src/apps/scalable/bloomrpc.svg

<?xml version="1.0" encoding="UTF-8" standalone="no"?>
<svg
   width="128"
   height="128"
   viewBox="0 0 33.866666 33.866668"
   version="1.1"
   id="svg2547"
   inkscape:version="1.1.2 (0a00cf5339, 2022-02-04)"
   sodipodi:docname="bloomrpc.svg"
   xmlns:inkscape="http://www.inkscape.org/namespaces/inkscape"
   xmlns:sodipodi="http://sodipodi.sourceforge.net/DTD/sodipodi-0.dtd"
   xmlns:xlink="http://www.w3.org/1999/xlink"
   xmlns="http://www.w3.org/2000/svg"
   xmlns:svg="http://www.w3.org/2000/svg"
   xmlns:rdf="http://www.w3.org/1999/02/22-rdf-syntax-ns#"
   xmlns:cc="http://creativecommons.org/ns#"
   xmlns:dc="http://purl.org/dc/elements/1.1/">
  <defs
     id="defs2541">
    <linearGradient
       inkscape:collect="always"
       id="linearGradient1096">
      <stop
         style="stop-color:#0dd8c1;stop-opacity:1;"
         offset="0"
         id="stop1092" />
      <stop
         style="stop-color:#00e5aa;stop-opacity:1"
         offset="1"
         id="stop1094" />
    </linearGradient>
    <linearGradient
       inkscape:collect="always"
       id="linearGradient898">
      <stop
         style="stop-color:#2181f2;stop-opacity:1"
         offset="0"
         id="stop894" />
      <stop
         style="stop-color:#14a1ff;stop-opacity:1"
         offset="1"
         id="stop896" />
    </linearGradient>
    <linearGradient
       inkscape:collect="always"
       xlink:href="#linearGradient934"
       id="linearGradient936"
       x1="-27.205925"
       y1="-1.3796136"
       x2="-27.205925"
       y2="25.267708"
       gradientUnits="userSpaceOnUse"
       gradientTransform="translate(43.841853,5.63249)" />
    <linearGradient
       inkscape:collect="always"
       id="linearGradient934">
      <stop
         style="stop-color:#f5f9fb;stop-opacity:1"
         offset="0"
         id="stop930" />
      <stop
         style="stop-color:#f5eeec;stop-opacity:1"
         offset="1"
         id="stop932" />
    </linearGradient>
    <linearGradient
       id="b"
       x1="32"
       x2="32"
       y1="48"
       y2="22"
       gradientTransform="matrix(0.51392977,0,0,0.51392977,0.8488955,0.28621556)"
       gradientUnits="userSpaceOnUse">
      <stop
         offset="0"
         stop-color="#425576"
         id="stop17" />
      <stop
         offset="1"
         stop-color="#5a7da5"
         id="stop19" />
    </linearGradient>
    <linearGradient
       id="c"
       x1="32"
       x2="32"
       y1="44"
       y2="18"
       gradientTransform="matrix(0.51392977,0,0,0.51392977,0.8488955,0.14161106)"
       gradientUnits="userSpaceOnUse">
      <stop
         offset="0"
         stop-color="#ff8652"
         id="stop12" />
      <stop
         offset="1"
         stop-color="#ffc55c"
         id="stop14" />
    </linearGradient>
    <linearGradient
       id="d"
       x1="32"
       x2="32"
       y1="39"
       y2="18"
       gradientTransform="matrix(0.51392977,0,0,0.51392977,0.8488955,0.01281406)"
       gradientUnits="userSpaceOnUse">
      <stop
         offset="0"
         stop-color="#5486d4"
         id="stop7" />
      <stop
         offset="1"
         stop-color="#78c7e3"
         id="stop9" />
    </linearGradient>
    <linearGradient
       inkscape:collect="always"
       xlink:href="#linearGradient898"
       id="linearGradient900"
       x1="21.075937"
       y1="18.67277"
       x2="11.935842"
       y2="11.226666"
       gradientUnits="userSpaceOnUse" />
    <linearGradient
       inkscape:collect="always"
       xlink:href="#linearGradient1096"
       id="linearGradient1098"
       x1="21.075937"
       y1="18.67277"
       x2="23.436556"
       y2="10.700093"
       gradientUnits="userSpaceOnUse" />
  </defs>
  <sodipodi:namedview
     id="base"
     pagecolor="#ffffff"
     bordercolor="#666666"
     borderopacity="1.0"
     inkscape:pageopacity="0.0"
     inkscape:pageshadow="2"
     inkscape:zoom="1.979899"
     inkscape:cx="9.5964491"
     inkscape:cy="34.850263"
     inkscape:document-units="mm"
     inkscape:current-layer="layer1"
     inkscape:document-rotation="0"
     showgrid="false"
     units="px"
     inkscape:window-width="1514"
     inkscape:window-height="941"
     inkscape:window-x="50"
     inkscape:window-y="27"
     inkscape:window-maximized="0"
     inkscape:pagecheckerboard="0" />
  <metadata
     id="metadata2544">
    <rdf:RDF>
      <cc:Work
         rdf:about="">
        <dc:format>image/svg+xml</dc:format>
        <dc:type
           rdf:resource="http://purl.org/dc/dcmitype/StillImage" />
      </cc:Work>
    </rdf:RDF>
  </metadata>
  <g
     inkscape:label="Capa 1"
     inkscape:groupmode="layer"
     id="layer1">
    <g
       id="g1702"
       transform="matrix(0.97573206,0,0,0.97573206,-65.777323,-37.255828)"
       style="opacity:0.296765">
      <rect
         style="fill:none;fill-opacity:1;stroke:#000000;stroke-width:0.1;stroke-linecap:round;stroke-linejoin:round;stroke-miterlimit:4;stroke-dasharray:none;stroke-opacity:0.02"
         id="rect1634"
         width="29.810888"
         height="29.810888"
         x="69.839508"
         y="40.709618"
         rx="6.6098609"
         ry="6.6098609" />
      <rect
         ry="6.6098609"
         rx="6.6098609"
         y="40.709618"
         x="69.839508"
         height="29.810888"
         width="29.810888"
         id="rect1638"
         style="fill:none;fill-opacity:1;stroke:#000000;stroke-width:0.2;stroke-linecap:round;stroke-linejoin:round;stroke-miterlimit:4;stroke-dasharray:none;stroke-opacity:0.02" />
      <rect
         style="fill:none;fill-opacity:1;stroke:#000000;stroke-width:0.3;stroke-linecap:round;stroke-linejoin:round;stroke-miterlimit:4;stroke-dasharray:none;stroke-opacity:0.02"
         id="rect1640"
         width="29.810888"
         height="29.810888"
         x="69.839508"
         y="40.709618"
         rx="6.6098609"
         ry="6.6098609" />
      <rect
         ry="6.6098609"
         rx="6.6098609"
         y="40.709618"
         x="69.839508"
         height="29.810888"
         width="29.810888"
         id="rect1642"
         style="fill:none;fill-opacity:1;stroke:#000000;stroke-width:0.4;stroke-linecap:round;stroke-linejoin:round;stroke-miterlimit:4;stroke-dasharray:none;stroke-opacity:0.02" />
      <rect
         style="fill:none;fill-opacity:1;stroke:#000000;stroke-width:0.5;stroke-linecap:round;stroke-linejoin:round;stroke-miterlimit:4;stroke-dasharray:none;stroke-opacity:0.02"
         id="rect1644"
         width="29.810888"
         height="29.810888"
         x="69.839508"
         y="40.709618"
         rx="6.6098609"
         ry="6.6098609" />
      <rect
         ry="6.6098609"
         rx="6.6098609"
         y="40.709618"
         x="69.839508"
         height="29.810888"
         width="29.810888"
         id="rect1646"
         style="fill:none;fill-opacity:1;stroke:#000000;stroke-width:0.6;stroke-linecap:round;stroke-linejoin:round;stroke-miterlimit:4;stroke-dasharray:none;stroke-opacity:0.02" />
      <rect
         style="fill:none;fill-opacity:1;stroke:#000000;stroke-width:0.7;stroke-linecap:round;stroke-linejoin:round;stroke-miterlimit:4;stroke-dasharray:none;stroke-opacity:0.02"
         id="rect1648"
         width="29.810888"
         height="29.810888"
         x="69.839508"
         y="40.709618"
         rx="6.6098609"
         ry="6.6098609" />
      <rect
         ry="6.6098609"
         rx="6.6098609"
         y="40.709618"
         x="69.839508"
         height="29.810888"
         width="29.810888"
         id="rect1650"
         style="fill:none;fill-opacity:1;stroke:#000000;stroke-width:0.8;stroke-linecap:round;stroke-linejoin:round;stroke-miterlimit:4;stroke-dasharray:none;stroke-opacity:0.02" />
      <rect
         style="fill:none;fill-opacity:1;stroke:#000000;stroke-width:1;stroke-linecap:round;stroke-linejoin:round;stroke-miterlimit:4;stroke-dasharray:none;stroke-opacity:0.02"
         id="rect1652"
         width="29.810888"
         height="29.810888"
         x="69.839508"
         y="40.709618"
         rx="6.6098609"
         ry="6.6098609" />
      <rect
         ry="6.6098609"
         rx="6.6098609"
         y="40.709618"
         x="69.839508"
         height="29.810888"
         width="29.810888"
         id="rect1654"
         style="fill:none;fill-opacity:1;stroke:#000000;stroke-width:1.2;stroke-linecap:round;stroke-linejoin:round;stroke-miterlimit:4;stroke-dasharray:none;stroke-opacity:0.02" />
      <rect
         style="fill:none;fill-opacity:1;stroke:#000000;stroke-width:1.4;stroke-linecap:round;stroke-linejoin:round;stroke-miterlimit:4;stroke-dasharray:none;stroke-opacity:0.02"
         id="rect1656"
         width="29.810888"
         height="29.810888"
         x="69.839508"
         y="40.709618"
         rx="6.6098609"
         ry="6.6098609" />
      <rect
         ry="6.6098609"
         rx="6.6098609"
         y="40.709618"
         x="69.839508"
         height="29.810888"
         width="29.810888"
         id="rect1658"
         style="fill:none;fill-opacity:1;stroke:#000000;stroke-width:1.6;stroke-linecap:round;stroke-linejoin:round;stroke-miterlimit:4;stroke-dasharray:none;stroke-opacity:0.02" />
      <rect
         style="fill:none;fill-opacity:1;stroke:#000000;stroke-width:1.8;stroke-linecap:round;stroke-linejoin:round;stroke-miterlimit:4;stroke-dasharray:none;stroke-opacity:0.02"
         id="rect1660"
         width="29.810888"
         height="29.810888"
         x="69.839508"
         y="40.709618"
         rx="6.6098609"
         ry="6.6098609" />
      <rect
         ry="6.6098609"
         rx="6.6098609"
         y="40.709618"
         x="69.839508"
         height="29.810888"
         width="29.810888"
         id="rect1662"
         style="fill:none;fill-opacity:1;stroke:#000000;stroke-width:2;stroke-linecap:round;stroke-linejoin:round;stroke-miterlimit:4;stroke-dasharray:none;stroke-opacity:0.02" />
      <rect
         style="fill:none;fill-opacity:1;stroke:#000000;stroke-width:2.2;stroke-linecap:round;stroke-linejoin:round;stroke-miterlimit:4;stroke-dasharray:none;stroke-opacity:0.02"
         id="rect1664"
         width="29.810888"
         height="29.810888"
         x="69.839508"
         y="40.709618"
         rx="6.6098609"
         ry="6.6098609" />
      <rect
         ry="6.6098609"
         rx="6.6098609"
         y="40.709618"
         x="69.839508"
         height="29.810888"
         width="29.810888"
         id="rect1666"
         style="fill:none;fill-opacity:1;stroke:#000000;stroke-width:2.6;stroke-linecap:round;stroke-linejoin:round;stroke-miterlimit:4;stroke-dasharray:none;stroke-opacity:0.02" />
      <rect
         style="fill:none;fill-opacity:1;stroke:#000000;stroke-width:3;stroke-linecap:round;stroke-linejoin:round;stroke-miterlimit:4;stroke-dasharray:none;stroke-opacity:0.02"
         id="rect1668"
         width="29.810888"
         height="29.810888"
         x="69.839508"
         y="40.709618"
         rx="6.6098609"
         ry="6.6098609" />
      <rect
         ry="6.6098609"
         rx="6.6098609"
         y="40.709618"
         x="69.839508"
         height="29.810888"
         width="29.810888"
         id="rect1670"
         style="fill:none;fill-opacity:1;stroke:#000000;stroke-width:3.4;stroke-linecap:round;stroke-linejoin:round;stroke-miterlimit:4;stroke-dasharray:none;stroke-opacity:0.02" />
      <rect
         style="fill:none;fill-opacity:1;stroke:#000000;stroke-width:3.8;stroke-linecap:round;stroke-linejoin:round;stroke-miterlimit:4;stroke-dasharray:none;stroke-opacity:0.02"
         id="rect1672"
         width="29.810888"
         height="29.810888"
         x="69.839508"
         y="40.709618"
         rx="6.6098609"
         ry="6.6098609" />
      <rect
         ry="6.6098609"
         rx="6.6098609"
         y="40.709618"
         x="69.839508"
         height="29.810888"
         width="29.810888"
         id="rect1674"
         style="fill:none;fill-opacity:1;stroke:#000000;stroke-width:4.2;stroke-linecap:round;stroke-linejoin:round;stroke-miterlimit:4;stroke-dasharray:none;stroke-opacity:0.02" />
      <rect
         style="fill:none;fill-opacity:1;stroke:#000000;stroke-width:4.6;stroke-linecap:round;stroke-linejoin:round;stroke-miterlimit:4;stroke-dasharray:none;stroke-opacity:0.02"
         id="rect1676"
         width="29.810888"
         height="29.810888"
         x="69.839508"
         y="40.709618"
         rx="6.6098609"
         ry="6.6098609" />
      <rect
         ry="6.6098609"
         rx="6.6098609"
         y="40.709618"
         x="69.839508"
         height="29.810888"
         width="29.810888"
         id="rect1678"
         style="fill:none;fill-opacity:1;stroke:#000000;stroke-width:5;stroke-linecap:round;stroke-linejoin:round;stroke-miterlimit:4;stroke-dasharray:none;stroke-opacity:0.02" />
    </g>
    <rect
       style="fill:url(#linearGradient936);fill-opacity:1;stroke-width:2.68769;stroke-linecap:round;stroke-linejoin:round"
       id="rect849-5"
       width="29.08744"
       height="29.08744"
       x="2.3673291"
       y="2.4658532"
       rx="6.4494534"
       ry="6.4494534" />
    <path
       style="opacity:0.2;stroke-width:0.456958"
       d="M 13.443269,8.6089747 C 12.868638,9.4876593 12.369047,10.361432 11.935842,11.226666 10.871563,10.063002 9.9239176,9.2632417 9.3511726,9.0980614 7.6301306,19.616158 10.130146,25.54786 17.507699,26.887305 17.845966,26.761798 18.168598,26.626688 18.48409,26.487466 24.903307,23.742469 27.337751,19.086362 25.69814,9.0659324 25.372575,9.0069006 24.495424,9.6003862 23.436555,10.700093 23.084388,10.00739 22.680856,9.3094637 22.222758,8.6089747 20.429596,9.0983999 18.966667,9.9208609 17.803115,10.955348 16.676007,9.9209472 15.236326,9.0983706 13.443269,8.6089747 Z"
       id="path2" />
    <path
       style="fill:#5edd86;stroke-width:0.456958"
       d="M 9.3507926,8.641349 C 11.830854,9.3565976 21.234843,21.630301 17.507473,26.430347 10.129919,25.090902 7.6297486,19.159445 9.3507926,8.641349 Z"
       id="path4" />
    <path
       style="opacity:0.2;fill:#ffffff;stroke-width:0.456958"
       d="M 9.3511726,8.6411037 C 9.0004316,10.784642 8.8280756,12.734271 8.8335246,14.496775 8.8569956,12.856131 9.0306526,11.056904 9.3511726,9.0980614 11.405138,9.6904244 18.201252,18.207841 18.360926,23.844783 18.579378,18.224041 11.461372,9.249684 9.3511726,8.6411037 Z"
       id="path6" />
    <path
       style="fill:#077cc5;stroke-width:0.456958"
       d="M 22.222596,8.1520171 C 12.545816,10.793198 12.445918,23.097606 17.507473,26.430347 25.913409,23.311487 27.274643,15.87725 22.222596,8.1520171 Z"
       id="path8" />
    <path
       style="opacity:0.1;fill:#ffffff;stroke-width:0.456958"
       d="m 22.222758,8.1520153 c -5.780165,1.5776399 -8.141676,6.6027277 -8.028899,11.1044437 0.05323,-4.379824 2.443426,-9.122985 8.028899,-10.6474843 1.879243,2.8736043 2.8688,5.7062403 2.940778,8.2921863 0.03958,-2.707583 -0.949962,-5.70493 -2.940778,-8.7491457 z"
       id="path10" />
    <path
       style="fill:url(#linearGradient900);stroke-width:0.456958;fill-opacity:1"
       d="m 13.443191,8.1520171 c 9.67678,2.6411809 9.125834,14.9455889 4.064282,18.2783299 -5.000423,-1.85531 -7.225962,-5.237693 -7.280207,-9.299997 -0.03694,-2.766614 1.169177,-5.848593 3.215925,-8.9783329 z"
       id="path12" />
    <path
       style="opacity:0.2;fill:#ffffff;stroke-width:0.456958"
       d="m 13.443269,8.1520153 c -2.046746,3.1297417 -3.252608,6.2119017 -3.215664,8.9785157 4.61e-4,0.03459 0.0036,0.06815 0.0045,0.102641 0.0649,-2.674428 1.251264,-5.627198 3.2112,-8.6241938 5.337994,1.4569528 7.55946,5.8539148 7.632632,10.0637908 0.08466,-4.344199 -2.101041,-9.0109572 -7.632632,-10.5207502 z"
       id="path14" />
    <path
       style="fill:url(#linearGradient1098);stroke-width:0.456958;fill-opacity:1"
       d="M 25.697703,8.6089747 C 24.563596,8.4033116 16.822446,15.897117 17.507473,26.430347 24.66181,23.739839 27.418746,19.127069 25.697703,8.6089747 Z"
       id="path16" />
    <path
       style="opacity:0.2;fill:#ffffff;stroke-width:0.456958"
       d="M 25.69814,8.6089747 C 24.59721,8.409327 17.271316,15.466054 17.470214,25.514644 17.497675,15.710633 24.614032,8.8693365 25.69814,9.0659324 c 0.312285,1.9085136 0.474762,3.6205346 0.492658,5.1639856 0.01261,-1.660578 -0.149134,-3.52148 -0.492658,-5.6209433 z"
       id="path18" />
  </g>
</svg>

<?xml version="1.0" encoding="UTF-8"?>
<svg id="svg2547" width="128" height="128" version="1.1" viewBox="0 0 33.867 33.867" xmlns="http://www.w3.org/2000/svg" xmlns:cc="http://creativecommons.org/ns#" xmlns:dc="http://purl.org/dc/elements/1.1/" xmlns:rdf="http://www.w3.org/1999/02/22-rdf-syntax-ns#" xmlns:xlink="http://www.w3.org/1999/xlink">
 <defs id="defs2541">
  <linearGradient id="linearGradient936" x1="-27.206" x2="-27.206" y1="-1.3796" y2="25.268" gradientTransform="translate(43.842 5.6325)" gradientUnits="userSpaceOnUse">
   <stop id="stop930" stop-color="#f5f9fb" offset="0"/>
   <stop id="stop932" stop-color="#f5eeec" offset="1"/>
  </linearGradient>
  <linearGradient id="linearGradient900" x1="21.076" x2="11.936" y1="18.673" y2="11.227" gradientUnits="userSpaceOnUse">
   <stop id="stop894" stop-color="#2181f2" offset="0"/>
   <stop id="stop896" stop-color="#14a1ff" offset="1"/>
  </linearGradient>
  <linearGradient id="linearGradient1098" x1="21.076" x2="23.437" y1="18.673" y2="10.7" gradientUnits="userSpaceOnUse">
   <stop id="stop1092" stop-color="#0dd8c1" offset="0"/>
   <stop id="stop1094" stop-color="#00e5aa" offset="1"/>
  </linearGradient>
 </defs>
 <metadata id="metadata2544">
  <rdf:RDF>
   <cc:Work rdf:about="">
    <dc:format>image/svg+xml</dc:format>
    <dc:type rdf:resource="http://purl.org/dc/dcmitype/StillImage"/>
   </cc:Work>
  </rdf:RDF>
 </metadata>
 <g id="layer1">
  <g id="g1702" transform="matrix(.97573 0 0 .97573 -65.777 -37.256)" fill="none" opacity=".29676" stroke="#000" stroke-linecap="round" stroke-linejoin="round" stroke-opacity=".02">
   <rect id="rect1634" x="69.84" y="40.71" width="29.811" height="29.811" rx="6.6099" ry="6.6099" stroke-width=".1"/>
   <rect id="rect1638" x="69.84" y="40.71" width="29.811" height="29.811" rx="6.6099" ry="6.6099" stroke-width=".2"/>
   <rect id="rect1640" x="69.84" y="40.71" width="29.811" height="29.811" rx="6.6099" ry="6.6099" stroke-width=".3"/>
   <rect id="rect1642" x="69.84" y="40.71" width="29.811" height="29.811" rx="6.6099" ry="6.6099" stroke-width=".4"/>
   <rect id="rect1644" x="69.84" y="40.71" width="29.811" height="29.811" rx="6.6099" ry="6.6099" stroke-width=".5"/>
   <rect id="rect1646" x="69.84" y="40.71" width="29.811" height="29.811" rx="6.6099" ry="6.6099" stroke-width=".6"/>
   <rect id="rect1648" x="69.84" y="40.71" width="29.811" height="29.811" rx="6.6099" ry="6.6099" stroke-width=".7"/>
   <rect id="rect1650" x="69.84" y="40.71" width="29.811" height="29.811" rx="6.6099" ry="6.6099" stroke-width=".8"/>
   <rect id="rect1652" x="69.84" y="40.71" width="29.811" height="29.811" rx="6.6099" ry="6.6099"/>
   <rect id="rect1654" x="69.84" y="40.71" width="29.811" height="29.811" rx="6.6099" ry="6.6099" stroke-width="1.2"/>
   <rect id="rect1656" x="69.84" y="40.71" width="29.811" height="29.811" rx="6.6099" ry="6.6099" stroke-width="1.4"/>
   <rect id="rect1658" x="69.84" y="40.71" width="29.811" height="29.811" rx="6.6099" ry="6.6099" stroke-width="1.6"/>
   <rect id="rect1660" x="69.84" y="40.71" width="29.811" height="29.811" rx="6.6099" ry="6.6099" stroke-width="1.8"/>
   <rect id="rect1662" x="69.84" y="40.71" width="29.811" height="29.811" rx="6.6099" ry="6.6099" stroke-width="2"/>
   <rect id="rect1664" x="69.84" y="40.71" width="29.811" height="29.811" rx="6.6099" ry="6.6099" stroke-width="2.2"/>
   <rect id="rect1666" x="69.84" y="40.71" width="29.811" height="29.811" rx="6.6099" ry="6.6099" stroke-width="2.6"/>
   <rect id="rect1668" x="69.84" y="40.71" width="29.811" height="29.811" rx="6.6099" ry="6.6099" stroke-width="3"/>
   <rect id="rect1670" x="69.84" y="40.71" width="29.811" height="29.811" rx="6.6099" ry="6.6099" stroke-width="3.4"/>
   <rect id="rect1672" x="69.84" y="40.71" width="29.811" height="29.811" rx="6.6099" ry="6.6099" stroke-width="3.8"/>
   <rect id="rect1674" x="69.84" y="40.71" width="29.811" height="29.811" rx="6.6099" ry="6.6099" stroke-width="4.2"/>
   <rect id="rect1676" x="69.84" y="40.71" width="29.811" height="29.811" rx="6.6099" ry="6.6099" stroke-width="4.6"/>
   <rect id="rect1678" x="69.84" y="40.71" width="29.811" height="29.811" rx="6.6099" ry="6.6099" stroke-width="5"/>
  </g>
  <rect id="rect849-5" x="2.3673" y="2.4659" width="29.087" height="29.087" rx="6.4495" ry="6.4495" fill="url(#linearGradient936)" stroke-linecap="round" stroke-linejoin="round" stroke-width="2.6877"/>
  <path id="path2" d="m13.443 8.609c-0.57463 0.87868-1.0742 1.7525-1.5074 2.6177-1.0643-1.1637-2.0119-1.9634-2.5847-2.1286-1.721 10.518 0.77897 16.45 8.1565 17.789 0.33827-0.12551 0.6609-0.26062 0.97639-0.39984 6.4192-2.745 8.8537-7.4011 7.214-17.422-0.32556-0.059032-1.2027 0.53445-2.2616 1.6342-0.35217-0.6927-0.7557-1.3906-1.2138-2.0911-1.7932 0.48943-3.2561 1.3119-4.4196 2.3464-1.1271-1.0344-2.5668-1.857-4.3598-2.3464z" opacity=".2" stroke-width=".45696"/>
  <path id="path4" d="m9.3508 8.6413c2.4801 0.71525 11.884 12.989 8.1567 17.789-7.3776-1.3394-9.8777-7.2709-8.1567-17.789z" fill="#5edd86" stroke-width=".45696"/>
  <path id="path6" d="m9.3512 8.6411c-0.35074 2.1435-0.5231 4.0932-0.51765 5.8557 0.023471-1.6406 0.19713-3.4399 0.51765-5.3987 2.054 0.59236 8.8501 9.1098 9.0098 14.747 0.21845-5.6207-6.8996-14.595-9.0098-15.204z" fill="#fff" opacity=".2" stroke-width=".45696"/>
  <path id="path8" d="m22.223 8.152c-9.6768 2.6412-9.7767 14.946-4.7151 18.278 8.4059-3.1189 9.7672-10.553 4.7151-18.278z" fill="#077cc5" stroke-width=".45696"/>
  <path id="path10" d="m22.223 8.152c-5.7802 1.5776-8.1417 6.6027-8.0289 11.104 0.05323-4.3798 2.4434-9.123 8.0289-10.647 1.8792 2.8736 2.8688 5.7062 2.9408 8.2922 0.03958-2.7076-0.94996-5.7049-2.9408-8.7491z" fill="#fff" opacity=".1" stroke-width=".45696"/>
  <path id="path12" d="m13.443 8.152c9.6768 2.6412 9.1258 14.946 4.0643 18.278-5.0004-1.8553-7.226-5.2377-7.2802-9.3-0.03694-2.7666 1.1692-5.8486 3.2159-8.9783z" fill="url(#linearGradient900)" stroke-width=".45696"/>
  <path id="path14" d="m13.443 8.152c-2.0467 3.1297-3.2526 6.2119-3.2157 8.9785 4.61e-4 0.03459 0.0036 0.06815 0.0045 0.10264 0.0649-2.6744 1.2513-5.6272 3.2112-8.6242 5.338 1.457 7.5595 5.8539 7.6326 10.064 0.08466-4.3442-2.101-9.011-7.6326-10.521z" fill="#fff" opacity=".2" stroke-width=".45696"/>
  <path id="path16" d="m25.698 8.609c-1.1341-0.20566-8.8753 7.2881-8.1902 17.821 7.1543-2.6905 9.9113-7.3033 8.1902-17.821z" fill="url(#linearGradient1098)" stroke-width=".45696"/>
  <path id="path18" d="m25.698 8.609c-1.1009-0.19965-8.4268 6.8571-8.2279 16.906 0.027461-9.804 7.1438-16.645 8.2279-16.449 0.31228 1.9085 0.47476 3.6205 0.49266 5.164 0.01261-1.6606-0.14913-3.5215-0.49266-5.6209z" fill="#fff" opacity=".2" stroke-width=".45696"/>
 </g>
</svg>
